X:18
T:Le brave Gay Gordon
R:Cercle ou chapelloise
C:Trad.
M:6/8
Q:3/8=120
L:1/8
K:G
V:1
d||B2B BAG|B2d e2d|B2B BAG|A3 A2d|B2B BAG|B2d e2d|B2B ABA|G3 G2d||
g2d e2d|g2d e2d|B2B BAG|A3 A2d|g2d e2d|g2d e2d|B2B AGA|G3 G2|]
V:2
z||d3 d2B|GGG c3|ege d3|faf a3|d3 d2B|GGG c3|ege c3|d3 DGB||
dBG cAG|dBG cAG|E3 A2B|d3-dcB|dBG cAG|dBG cAG|E3 D2F|B6|]

%%footer $D   Galouvielle-MBe 2006 \nCercle circassien (Irlande)
